!!!CDT:
!!!PTL: Le Musiche del Sig.r Sigismondo d'India. Libro Terzo a una e due voci
!!!PPP: Milan
!!!PPR: Filippo Lomazzo
!!!PDT: 1618
!!!RISM: I 31
!!!rime:
!!!AGN: Madrigal
!!!SCT: Tsg12096g
!!!SCA: Tsg12096g
!!!voices:
!!!COM: D'India, Sigismondo
!!!OTL: Giunto a la tomba ove al suo spirto vivo
**kern	**text	**kern	**text
*part2	*part2	*part1	*part1
*staff2	*staff2	*staff1	*staff1
*I"[Basso continuo]	*	*I"[Canto]	*
*I'Bc	*	*I'C	*
*oclefF4	*	*oclefC1	*
*clefF4	*	*clefG2	*
*k[b-]	*	*k[b-]	*
*F:	*	*F:	*
*omet(C)	*	*omet(C)	*
*M4/4	*	*M4/4	*
=1	=1	=1	=1
1G	.	[1b-y	Giun-
=2	=2	=2	=2
[1GG	.	2b-]	.
.	.	4e-X	-to a
.	.	4e-i	la
=3	=3	=3	=3
1GG_	11:#	1e-i	tom-
=4	=4	=4	=4
1GG]	.	1d	-ba
=5	=5	=5	=5
2GG	.	8r	.
.	.	8g	o-
.	.	8a	-ve al
.	.	8b-y	suo
2E-X	.	4.cc	spir-
.	.	8b-y	-to
=6	=6	=6	=6
1D	11:#	2.dd	vi-
.	.	4a	-vo
=7	=7	=7	=7
1D	.	2r	.
.	.	(2f	Do-
=8	=8	=8	=8
1AA	6:#	2f#X)	.
.	.	2f#X	-lo-
=9	=9	=9	=9
1BBnX	.	2.g	-ro-
.	.	8d	-sa
.	.	8d	pri-
=10	=10	=10	=10
2.C	.	[1e	-gion
4BB-i	.	.	.
=11	=11	=11	=11
2.AA	#	4e]	.
.	.	4e	il
.	.	2a	Ciel,
4AA	#	.	.
=12	=12	=12	=12
2.D	#	4r	.
.	.	4a	il
.	.	[2dd	Ciel
4C	#	.	.
=13	=13	=13	=13
4BB-y	.	1dd]	.
8AAL	.	.	.
8GGJ	.	.	.
4FF#X	.	.	.
4GG	.	.	.
=14	=14	=14	=14
1D	.	4r	.
.	.	4e	pre-
.	.	16f#XL	-scris-
.	.	16f#i	.
.	.	16f#i	.
.	.	16f#iJ	.
.	.	16f#iL	.
.	.	16f#i	.
.	.	16f#i	.
.	.	32e	.
.	.	32f#iJ	.
=15	=15	=15	=15
1GG	.	1g	-se,
=16	=16	=16	=16
[1C	.	2.e-X	Pal-
.	.	4e-X	-li-
=17	=17	=17	=17
1C]	.	1e-X	-do,
=18	=18	=18	=18
[1C#X	.	[1enX	fred-
=19	=19	=19	=19
1C#]	.	2.e]	.
.	.	4e	-do,
=20	=20	=20	=20
1D	11:#	1d	mu-
=21	=21	=21	=21
1DD	.	1d	-to,
=22	=22	=22	=22
1AA	.	8r	.
.	.	8a	e
.	.	8cc	qua-
.	.	8cc	-si
.	.	4cc	pri-
.	.	8cc	-vo
.	.	8cc	Di
=23	=23	=23	=23
[1AA	.	4cc	mo-
.	.	4cc	-vi-
.	.	2cc	-men-
=24	=24	=24	=24
1AA]	.	1cc	-to,
=25	=25	=25	=25
1E	#	4r	.
.	.	4g#X	al
.	.	4g#i	mar-
.	.	4a	-mo
=26	=26	=26	=26
1C#X	.	[1a	gli oc-
=27	=27	=27	=27
(2FF#X	.	4a]	.
.	.	4e	-chi af-
2AA)	11:#	2e	-fis-
=28	=28	=28	=28
1D	.	1d	-se.
=29	=29	=29	=29
1D	.	4r	.
.	.	4dd	Al
.	.	4dd	fin,
.	.	4dd	sgor-
=30	=30	=30	=30
2D	.	16ddL	-gan-
.	.	16cc	.
.	.	16b-y	.
.	.	16ccJ	.
.	.	16ddL	.
.	.	16b-y	.
.	.	16cc	.
.	.	16ddJ	.
2C	.	16gL	.
.	.	16f	.
.	.	16e	.
.	.	16fJ	.
.	.	16gL	.
.	.	16e	.
.	.	16f	.
.	.	16gJ	.
=31	=31	=31	=31
1C	-	16cL	.
.	.	16d	.
.	.	16e-X	.
.	.	16dJ	.
.	.	16cL	.
.	.	16d	.
.	.	16e-X	.
.	.	16dJ	.
.	.	16e-XL	.
.	.	16f	.
.	.	16e-X	.
.	.	16fJ	.
.	.	16gL	.
.	.	16f	.
.	.	16e-X	.
.	.	16fJ	.
=32	=32	=32	=32
1C	-	16gL	.
.	.	16f	.
.	.	16g	.
.	.	16aJ	.
.	.	16gL	.
.	.	16a	.
.	.	16b-y	.
.	.	16aJ	.
.	.	16gL	.
.	.	16a	.
.	.	16b-y	.
.	.	16aJ	.
.	.	16b-yL	.
.	.	16cc	.
.	.	16dd	.
.	.	16ccJ	.
=33	=33	=33	=33
1BBnX	.	1dd	.
=34	=34	=34	=34
1D	11:#	1a	-do
=35	=35	=35	=35
1D	.	8r	.
.	.	8b-y	un
.	.	8b-y	la-
.	.	8b-y	-gri-
.	.	[2b-y	-mo-
=36	=36	=36	=36
1E	.	2.b-]	.
.	.	4cc	-so
=37	=37	=37	=37
1F	.	8.ccL	ri-
.	.	16ddJ	.
.	.	16b-yL	.
.	.	16cc	.
.	.	16b-y	.
.	.	8.aJ	.
.	.	16b-yL	.
.	.	8gJ	.
.	.	8aL	.
.	.	16gJ	.
=38	=38	=38	=38
1D	7:6#	8.fL	.
.	.	16gJ	.
.	.	8eL	.
.	.	16f	.
.	.	16eJ	.
.	.	2d	.
=39	=39	=39	=39
1C	4:3	1g	-vo,
=40	=40	=40	=40
[1AA	#	4a	In
.	.	4a	un
.	.	[2a	lan-
=41	=41	=41	=41
1AA]	.	4a]	.
.	.	4e	-gui-
.	.	(2f	-do ohi-
=42	=42	=42	=42
1D	.	2f#X)	.
.	.	2d	-mè,
=43	=43	=43	=43
[1D	.	4dd	in
.	.	4dd	un
.	.	[2dd	lan-
=44	=44	=44	=44
1D]	.	4dd]	.
.	.	4a	-gui-
.	.	(2b-y	-do ohi-
=45	=45	=45	=45
1GG	#	2bnX)	.
.	.	2g	-mè
=46	=46	=46	=46
1G	.	4r	.
.	.	4dd	pro-
.	.	[2eenX	-rup-
=47	=47	=47	=47
1D	.	4ee]	.
.	.	4a	-pe e
.	.	2a	dis-
=48	=48	=48	=48
1D	.	1a	-se:
=49	=49	=49	=49
1r	.	1r	.
=50	=50	=50	=50
1FF	.	8aL	"O
.	.	16b-y	.
.	.	16ccJ	.
.	.	8b-yL	.
.	.	8b-yJ	.
.	.	([2cc	.
=51	=51	=51	=51
1C	4:3	4cc]	.
.	.	8g	sas-
.	.	8f	-so a-
.	.	2g	-ma-
=52	=52	=52	=52
1C	.	1g	-to,
=53	=53	=53	=53
2.F	.	8r	.
.	.	8a	ed
.	.	8a	ho-
.	.	8a	-no-
.	.	4.a	-ra-
4D	.	.	.
.	.	8bnX	-to
=54	=54	=54	=54
2G	.	2bnX	tan-
2E	.	4bni	-to,
.	.	8r	.
.	.	8cc	Che
=55	=55	=55	=55
1F	.	8cc	den-
.	.	8b-i	-tro hai
.	.	8a	le
.	.	8g	mie
.	.	4a	fiam-
.	.	[4dd	-me e
=56	=56	=56	=56
4F	.	2.dd]	.
4E	.	.	.
4D	.	.	.
4C	.	8g	fuo-
.	.	8g	-ri il
=57	=57	=57	=57
1D	.	1g	pian-
=58	=58	=58	=58
1GG	.	1g	-to,
=59	=59	=59	=59
1B-y	.	1b-y	O,
=60	=60	=60	=60
1BB-y	.	1ff	O
=61	=61	=61	=61
1F	.	4r	.
.	.	8a	sas-
.	.	8a	-so a-
.	.	2a	-ma-
=62	=62	=62	=62
1F	.	1a	-to,
=63	=63	=63	=63
1C	.	1ee-X	O
=64	=64	=64	=64
1G	.	4r	.
.	.	8bnX	sas-
.	.	8bnX	-so a-
.	.	2bnX	-ma-
=65	=65	=65	=65
1G	.	2bnX	-to
.	.	8r	.
.	.	8dd	ed
.	.	8dd	ho-
.	.	8dd	-no-
=66	=66	=66	=66
2G	.	4.dd	-ra-
.	.	8cc	-to
[2E-X	.	2ee-X	tan-
=67	=67	=67	=67
1E-]	.	1ee-X	-to,
=68	=68	=68	=68
(1D	#	4r	.
.	.	4a	Che
.	.	8a	den-
.	.	8a	-tro hai
.	.	8a	le
.	.	8a	mie
=69	=69	=69	=69
1D)	#	4.a	fiam-
.	.	16b-yL	.
.	.	16ccJ	.
.	.	2a	-me,
=70	=70	=70	=70
1F	.	4r	.
.	.	4cc	che
.	.	8cc	den-
.	.	8cc	-tro hai
.	.	8cc	le
.	.	8cc	mie
=71	=71	=71	=71
[1F	.	16fL	fiam-
.	.	16e	.
.	.	16d	.
.	.	16eJ	.
.	.	16fL	.
.	.	16e	.
.	.	16f	.
.	.	16gJ	.
.	.	16fL	.
.	.	16g	.
.	.	16a	.
.	.	16gJ	.
.	.	16fL	.
.	.	16g	.
.	.	16a	.
.	.	16gJ	.
=72	=72	=72	=72
2F]	.	16aL	.
.	.	16b-y	.
.	.	16a	.
.	.	16b-yJ	.
.	.	16ccL	.
.	.	16a	.
.	.	16b-y	.
.	.	16aJ	.
[2E-X	.	16gL	.
.	.	16a	.
.	.	16b-y	.
.	.	16ccJ	.
.	.	16b-yL	.
.	.	16cc	.
.	.	16cc	.
.	.	16ccJ	.
=73	=73	=73	=73
2E-]	.	16ccL	.
.	.	16cc	.
.	.	16cc	.
.	.	16ccJ	.
.	.	16ccL	.
.	.	16cc	.
.	.	16b-y	.
.	.	16ccJ	.
2BBnX	.	[2dd	.
=74	=74	=74	=74
1E-X	.	4dd]	.
.	.	4g	-me e
.	.	[2g	fuo-
=75	=75	=75	=75
1D	#:11:#	4g]	.
.	.	4a	-ri il
.	.	2a	pian-
=76	=76	=76	=76
1GGl	.	1gl	-to."
==	==	==	==
*-	*-	*-	*-
!!!system-decoration: [*]
!!!RDF**kern: i = editorial accidental
!!!RDF**kern: l = terminal long
!!!ENC: Emiliano Ricciardi
!!!END:
!!!EED: Ricciardi, Emiliano
!!!EEV: 2020/02/23
!!!YEC: Copyright 2018 Emiliano Ricciardi, All Rights Reserved
!!!ONB: Translated from MusicXML on 2020/02/23
!!@@BEGIN:	VERSEDATA
!!@CATALOGNUM:	Tsg12096
!!@LAST_MODIFIED: 2020/07/12
!!@TITLE:		Giunto a la tomba ove al suo spirto vivo
!!@CANTO:		XII
!!@OTTAVA:	96
!!@MANUSRC:	G-Al, G-Am, G-Au, G-Br<sub>1</sub>, G-Br<sub>2</sub>, G-Cv, G-Es<sub>1</sub>, G-Es<sub>2</sub>, G-Es<sub>3</sub>, G-F, G-Fr, G-Fr<sub>1</sub>, G-Fr<sub>2</sub>, G-Mc, G-Mc<sub>1</sub>, G-Mg, G-Mr, G-Mt, G-N, G-Ol
!!@PRINTSRC:	G-1580CM, G-1581B, G-1581CV, G-1581R, G-1581MR, G-1581P, G-1581V, G-1581V<sub>bis</sub>, G-1582C, G-1582M, G-1582MC, G-1582P, G-1582SC, G-1582SC<sub>bis</sub>, G-1583S, G-1584O, G-1584S, G-1585C, G-1585S, G-1588S, G-1589S, G-1590B, G-1590S, G-1592S, G-1593S, G-1594C, G-1595C, G-1597C, G-1598C, G-1599C, G-1600C, G-1600S, G-1601C, G-1601R, G-1602C, G-1604C, G-1604Cl, G-1604F, G-1604P, G-1606B, G-1606B<sub>bis</sub>, G-1606L, G-1607ZR, G-1608DP, G-1609GC, G-1610M, G-1611S, G-1611V, G-1612P, G-1613M, G-1613P, G-1613V, G-1615P, G-1616M, G-1617P, G-1619B, G-1619V, G-1620M, G-1620S, G-1621R, G-1624I, G-1624MT, G-1625C, G-1625S, G-1625SS, G-1626C, G-1626Co, G-1627M, G-1628T, G-1628Tu, G-1630L, G-1630T, G-1632FT, G-1639CF, G-1642M, G-1643I, G-1644P, G-1644S
!!@@BEGIN:	VERSES
!!@ABOUTIT:
!!@ABOUTEN:
!!@EDITOR:	Angelo Solerti
!!@EDITION_TITLE: Gerusalemme liberata. Poema eroico di Torquato Tasso. Edizione critica sui manoscritti e le prime stampe.
!!@EDITION_LOC:	Florence
!!@EDITION_PUB:	G. Barbera
!!@EDITION_DATE:  1895
!!@EDITION_VOL:
!!@EDITION_PAGE:
!!@TRANSLATOR:	Emiliano Ricciardi and Amyrose McCue Gill
!!@VERSE:
!!	Giunto a la tomba ove al suo spirto vivo
!!	Dolorosa prigione il Ciel prescrisse;
!!	Pallido, freddo, muto, e quasi privo
!!	Di movimento, al marmo gli occhi affisse.
!!	Alfin sgorgando un lagrimoso rivo,
!!	In un languido oimè proruppe, e disse:
!!	"O sasso amato ed onorato tanto
!!	Che dentro hai le mie fiamme, e fuori il pianto:"
!!@MVERSE_DATE: 20230824
!!@MVERSE:
!!	Giun||to_a la tom||ba_o||ve_al suo spir||to vi||vo		=a
!!	Do|lo|ro||sa pri|gio||ne_il Ciel pre|scris||se;			=b
!!	Pal||li|do, fred||do, mu||to,_e qua||si pri||vo			=a*
!!	Di mo|vi|men||to,_al mar||mo gli_oc||chi_af|fis||se.		=b
!!	Al|fin|| sgor|gan||do_un la|gri|mo||so ri||vo,			=a
!!	In un lan||gui|do_oi|mè|| pro|rup||pe,_e dis||se:		=b
!!	"O sas||so_a|ma||to_ed o|no|ra||to tan||to			=c*
!!	Che den||tro_hai le mie fiam||me,_e fuo||ri_il pian||to:"	=c
!!@TVERSE:
!![Having] reached the tomb where for her living spirit
!!	A sorrowful prison Heaven mandated;
!!	Pale, cold, mute, and almost lacking
!!	In movement, upon marble he fixed his eyes.
!!	At last disgorging a tearful river,
!!	With a weak “Oh dear” burst forth, and he said:
!!	"O stone, beloved and so honored
!!	That within you have my flames, and without my tears:"
!!@@END:		VERSES
!!@OTHER_CRIT_ED:  Torquato Tasso, <i>Gerusalemme liberata</i>, ed. Lanfranco Caretti, 2 vols. (Bari: Laterza, 1967).
!!@ATTRIBUTION_ABOUT:
!!@DATING:	mid-1560s through 1570s
!!@DEDICATEE:	Duke Alfonso II d'Este
!!@COMMENTARY:
!!@@END:		VERSEDATA
!!@@BEGIN: SETTING
!!@CATALOGNUM:	Tsg12096g
!!@CANTO:		XII
!!@OTTAVA:	96
!!@TITLE:	Giunto a la tomba ove al suo spirto vivo
!!@COMPOSER:	D'India, Sigismondo
!!@PARTS:		1 of 1
!!@PRINCEPSTITLE:	Le Musiche del Sig.r Sigismondo d'India. Libro Terzo a una e due voci
!!@PRINCEPSLOC:	Milan
!!@NORMLOC:	Milan
!!@NORMPUB:	Filippo Lomazzo
!!@NORMPUBSHORT:	Lomazzo
!!@PRINCEPSPUB:	Filippo Lomazzo
!!@PRINCEPSYEAR:	1618
!!@PRINCEPSRISM:	I 31
!!@OVOICES:	1+bc
!!@EXTANTVOICES:	1+bc
!!@OMENSURATION:	C
!!@OCLEFS:	C1,F4
!!@OTIME:		
!!@OKEYSIG:	b-
!!@FINAL:		G
!!@TIMPEDITOR:	Ricciardi, Emiliano
!!@REPRINTS:	
!!@@END: SETTING
